X: 8739
T: Crystal Schottische
R: barndance
M: 4/4
K: Gmajor
|:SBcBA G2Bc|dBba g4|f2A2e2F2|GFGA BGD2|
BcBA G2Bc|dBba g4|f2A2e2F2|G2 G/G/ G4"To Coda"G:|
K:D
Agfe d2A2|f2 g2 a4|b2 e2 g2 c2|dcde fdA2|
Agfe d2A2|f2 g2 a4|b2 e2 g2 c2|d2 d/d/ d4d:|
K:C
|:"Coda"CEGc e2~c2|CEGE g4|g2f2 e2 dB|c2Bc AG3|
CEGc e2~c2|CEGE g4|g2f2 e2dB|c2 c/c/ c4c:|

